svg/24/cart.svg

<svg width="24" height="24" viewBox="0 0 24 24" fill="currentColor" xmlns="http://www.w3.org/2000/svg"><path fill-rule="evenodd" clip-rule="evenodd" d="M1 4.75C1 4.33579 1.33579 4 1.75 4H3.07595C3.78892 4 4.43061 4.43253 4.69811 5.09341L5.06506 6H20.25C20.4968 6 20.7279 6.12146 20.8678 6.32479C21.0078 6.52812 21.0387 6.78729 20.9505 7.01785L18.1921 14.2321C17.7851 15.2968 16.7634 16 15.6235 16H9.3481C8.22772 16 7.21935 15.3203 6.79899 14.2818L3.30769 5.6562C3.26947 5.56179 3.1778 5.5 3.07595 5.5H1.75C1.33579 5.5 1 5.16421 1 4.75ZM5.6722 7.5L8.18941 13.719C8.38049 14.1911 8.83883 14.5 9.3481 14.5H15.6235C16.1416 14.5 16.606 14.1804 16.7911 13.6964L19.1603 7.5H5.6722Z"/><path d="M8.5 17C9.32843 17 10 17.6716 10 18.5C10 19.3284 9.32843 20 8.5 20C7.67157 20 7 19.3284 7 18.5C7 17.6716 7.67157 17 8.5 17Z"/><path d="M18 18.5C18 17.6716 17.3284 17 16.5 17C15.6716 17 15 17.6716 15 18.5C15 19.3284 15.6716 20 16.5 20C17.3284 20 18 19.3284 18 18.5Z"/></svg>

<svg xmlns="http://www.w3.org/2000/svg" width="24" height="24" fill="currentColor" viewBox="0 0 24 24">
  <path fill-rule="evenodd" d="M1 4.75A.75.75 0 0 1 1.75 4h1.326a1.75 1.75 0 0 1 1.622 1.093L5.065 6H20.25a.75.75 0 0 1 .7 1.018l-2.758 7.214A2.75 2.75 0 0 1 15.623 16H9.348A2.75 2.75 0 0 1 6.8 14.282L3.308 5.656a.25.25 0 0 0-.232-.156H1.75A.75.75 0 0 1 1 4.75ZM5.672 7.5l2.517 6.219c.191.472.65.781 1.16.781h6.274c.519 0 .983-.32 1.168-.804l2.37-6.196H5.671Z" clip-rule="evenodd"/>
  <path d="M8.5 17a1.5 1.5 0 1 1 0 3 1.5 1.5 0 0 1 0-3Zm9.5 1.5a1.5 1.5 0 1 0-3 0 1.5 1.5 0 0 0 3 0Z"/>
</svg>
